X:58
T:Rondo Alla Turca
C:Mozart (Piano Sonata A min K.331-3)
N:Transcribed by Wendy Anthony 27 Jan 2006 (Mozart's 250th BD)
L:1/8
Q:1/4=120
M:2/4
K:C
"Part A"z2 B/A/^G/A/ |: cE/z/ d/c/B/c/ | eE/z/ f/e/^d/e/ | b/a/^g/a/ b/a/g/a/ | 
c'E/z/ a/z/c'/z/ | b/z/a/z/ g/z/a/z/ | b/z/a/z/ g/z/a/z/ | b/z/a/z/ g/z/^f/z/ | 
|1 e2 B/A/^G/A/ :|2 e2 e/z/f/z/ |: g/z/g/z/ a/g/f/e/ | dG/z/ e/z/f/z/ | g/z/g/z/ a/g/f/e/ | 
d2 c/z/d/z/ | e/z/e/z/ f/e/d/c/ | BE/z/ c/z/d/z/ | e/z/e/z/ f/e/d/c/ | B2 B/A/^G/A/ | 
cE/z/ d/c/B/c/ | eE/z/ f/e/^d/e/ | b/a/^g/a/ b/a/g/a/ | c'2 a/z/b/z/ | c'/z/b/z/ a/z/^g/z/ | 
a/z/e/z/ f/z/d/z/ | cE/z/ B/4c/4B/4c/4B/4c/4B/4A/4 |1 A2 e/z/f/z/ :|2 A4 | 
 

